X:11749
T:New May Day. JC.229
T:??.aka.JC.229
M:C|
L:1/8
Q:160
S:John Clare,Poet,Helpstone (1793-1864)
R:Hornpipe
O:England229
A:Northamptonshire
N:Similar to The Kirkgate Hornpipe
Z:P Headford
K:A
A2A2A2(cd)|fcdB AcBA|B2B2B2(fe)|dcBA GBGE|!
A2A2A2(cd)|ecdB Aagf|gbge fgf^d|e2e2e2z2||!
B2B2B2(cd)|ecBA GBGE|e2e2e2(fg)|gfed cecA|!
f2d2d2d2((3agf)|e2c2c2ae|fdec dBAG|A2A2A2z2|]


